X:3
T:Wind That Shakes The Barley, The
M:C|
L:1/8
S:Planxty: Cold Blow... Trk. 5
K:D
B| "D"A2 AB AFED| "G"B2 BA BcdB| "D"A2 AB AFED| "A7"gfed "G"BcdB|
"D"A2 AB AFED| "G"B2 BA BcdB| "D"A2 AB AFED| "A7"gfed "G"B2 d ||
e| "D"f2 fd "G"g2 ge| "D"f2 fd "A7"Bcde| "D"f2 fd "G"g2 fg| "D"afed "G"B
cde|
"D"f2 fd "G"g2 ge| "D"f2 fd "G"Bcde| "D"defg "G"afbf| "A7"gfed "G"Bcd |>
|
% Output from ABC2Win  Version 2.1 i on 6/25/2004
